local/share/icons/dracula-icons-main/scalable/apps/internet-mail.svg

<?xml version="1.0" encoding="UTF-8"?>
<svg xmlns="http://www.w3.org/2000/svg" xmlns:xlink="http://www.w3.org/1999/xlink" width="64" height="64" viewBox="0 0 64 64">
<path fill-rule="nonzero" fill="rgb(18.431373%, 55.294118%, 67.45098%)" fill-opacity="1" d="M 8.464844 1.324219 C 5.335938 1.324219 2.570312 3.359375 1.644531 6.351562 L 15.28125 6.351562 C 14.355469 3.363281 11.59375 1.328125 8.46875 1.324219 Z M 8.464844 1.324219 "/>
<path fill-rule="nonzero" fill="rgb(100%, 100%, 100%)" fill-opacity="1" d="M 14.816406 8.464844 C 14.816406 11.972656 11.972656 14.816406 8.464844 14.816406 C 4.960938 14.816406 2.117188 11.972656 2.117188 8.464844 C 2.117188 4.960938 4.960938 2.117188 8.464844 2.117188 C 11.972656 2.117188 14.816406 4.960938 14.816406 8.464844 Z M 14.816406 8.464844 "/>
<path fill-rule="nonzero" fill="rgb(14.901961%, 64.313725%, 79.215686%)" fill-opacity="1" d="M 14.867188 5.300781 L 3.402344 13.5 C 4.742188 14.847656 6.5625 15.609375 8.464844 15.609375 C 12.410156 15.609375 15.609375 12.410156 15.609375 8.464844 C 15.609375 7.367188 15.355469 6.285156 14.867188 5.300781 Z M 14.867188 5.300781 "/>
<path fill-rule="nonzero" fill="rgb(28.627451%, 74.117647%, 89.019608%)" fill-opacity="1" d="M 2.070312 5.304688 C 1.582031 6.285156 1.324219 7.367188 1.324219 8.464844 C 1.324219 12.410156 4.519531 15.609375 8.464844 15.609375 C 10.367188 15.609375 12.1875 14.847656 13.527344 13.5 Z M 2.070312 5.304688 "/>
</svg>

<svg width="64" height="64" version="1.1" viewBox="0 0 16.933 16.933" xmlns="http://www.w3.org/2000/svg">
 <g>
  <path d="m8.4665 1.3229a7.1436 7.1436 0 0 0-6.8227 5.027h13.638a7.1436 7.1436 0 0 0-6.815-5.027z" fill="#2f8dac" style="paint-order:stroke fill markers"/>
  <circle cx="8.4665" cy="8.4665" r="6.3499" fill="#fff" stroke-width=".88889" style="paint-order:stroke fill markers"/>
  <path d="m14.866 5.3009-11.464 8.1993a7.1436 7.1436 0 0 0 5.0637 2.1099 7.1436 7.1436 0 0 0 7.1436-7.1436 7.1436 7.1436 0 0 0-0.74361-3.1656z" fill="#26a4ca" style="paint-order:markers stroke fill"/>
  <path d="m2.0706 5.304a7.1436 7.1436 0 0 0-0.74774 3.1625 7.1436 7.1436 0 0 0 7.1436 7.1436 7.1436 7.1436 0 0 0 5.0621-2.1109z" fill="#49bde3" style="paint-order:markers stroke fill"/>
 </g>
</svg>
